X: 1
T:Flags of Dublin, The
M:4/4
L:1/8
K:D
B|:ADFA BcdB|ADFA BEEB|ADFA Bcde|1 fdce d2dB:|2 fece dABc||
|:dcdf edeg|fafe dcBA|1dcdf edeg|fABc d2dA:|2 GBBA Bcde|fece d2dB||
